svgs/sharp-light/building-lock.svg

<svg xmlns="http://www.w3.org/2000/svg" viewBox="0 0 576 512"><!--! Font Awesome Pro 6.6.0 by @fontawesome - https://fontawesome.com License - https://fontawesome.com/license (Commercial License) Copyright 2024 Fonticons, Inc. --><path d="M32 32l320 0 0 240c0-30.5 12.2-58.2 32-78.4L384 32l0-32L352 0 32 0 0 0 0 32 0 480l0 32 32 0 96 0 32 0 64 0 32 0 64 0 0-32-64 0 0-80 0-32-32 0-64 0-32 0 0 32 0 80-96 0L32 32zM320 240l0-16-16 0-64 0-16 0 0 16 0 64 0 16 16 0 64 0 16 0 0-16 0-16 0-48zM160 480l0-80 64 0 0 80-64 0zM64 96l0 16 0 64 0 16 16 0 64 0 16 0 0-16 0-64 0-16-16 0L80 96 64 96zm32 32l32 0 0 32-32 0 0-32zM240 96l-16 0 0 16 0 64 0 16 16 0 64 0 16 0 0-16 0-64 0-16-16 0-64 0zm16 64l0-32 32 0 0 32-32 0zM64 224l0 16 0 64 0 16 16 0 64 0 16 0 0-16 0-64 0-16-16 0-64 0-16 0zm32 32l32 0 0 32-32 0 0-32zm160 32l0-32 32 0 0 32-32 0zm208-64c26.5 0 48 21.5 48 48l0 48-96 0 0-48c0-26.5 21.5-48 48-48zm-80 48l0 48-32 0 0 32 0 128 0 32 32 0 160 0 32 0 0-32 0-128 0-32-32 0 0-48c0-44.2-35.8-80-80-80s-80 35.8-80 80zm0 80l160 0 0 128-160 0 0-128z"/></svg>

<svg xmlns="http://www.w3.org/2000/svg" viewBox="0 0 576 512"><!--! Font Awesome Pro 6.4.2 by @fontawesome - https://fontawesome.com License - https://fontawesome.com/license (Commercial License) Copyright 2023 Fonticons, Inc. --><path d="M32 32H352V272c0-30.5 12.2-58.2 32-78.4V32 0H352 32 0V32 480v32H32h96 32 64 32 64l0-32H256V400 368H224 160 128v32 80H32V32zM320 240V224H304 240 224v16 64 16h16 64 16V304 288 240zM160 480V400h64v80H160zM64 96v16 64 16H80h64 16V176 112 96H144 80 64zm32 32h32v32H96V128zM240 96H224v16 64 16h16 64 16V176 112 96H304 240zm16 64V128h32v32H256zM64 224v16 64 16H80h64 16V304 240 224H144 80 64zm32 32h32v32H96V256zm160 32V256h32v32H256zm208-64c26.5 0 48 21.5 48 48v48H416V272c0-26.5 21.5-48 48-48zm-80 48v48H352v32V480v32h32H544h32V480 352 320H544V272c0-44.2-35.8-80-80-80s-80 35.8-80 80zm0 80H544V480H384V352z"/></svg>
